icons/svg/eyedropper-color.svg

<svg width="24" height="24" viewBox="0 0 24 24" fill="none" xmlns="http://www.w3.org/2000/svg">
<path d="M19.0471 7.81873L20.9195 9.69119M19.0471 7.81873L16.1833 4.95497M19.0471 7.81873L20.5429 6.32294C20.9334 5.93242 20.9334 5.29926 20.5429 4.90873L19.0933 3.45918C18.7028 3.06866 18.0696 3.06866 17.6791 3.45918L16.1833 4.95497M14.3109 3.08251L16.1833 4.95497" stroke="currentColor" stroke-width="1.5" stroke-linecap="round" stroke-linejoin="round"/>
<path d="M6.23487 13.8598L4.03273 16.062C3.82781 16.2669 3.72535 16.3693 3.64559 16.4868C3.5748 16.5909 3.51743 16.7036 3.47482 16.8222C3.4268 16.9558 3.40423 17.0989 3.35908 17.3852L3.26322 17.993C3.08971 19.0933 3.00295 19.6435 3.17578 20.0429C3.32709 20.3926 3.60581 20.6716 3.95535 20.8233C4.3546 20.9965 4.90484 20.9103 6.00533 20.738L6.61543 20.6424C6.90224 20.5975 7.04564 20.575 7.17947 20.527C7.29824 20.4844 7.41115 20.427 7.51554 20.3561C7.63317 20.2763 7.73581 20.1736 7.94109 19.9684L15.6591 12.2503C16.2531 11.6563 16.5502 11.3593 16.6614 11.0168C16.7593 10.7155 16.7593 10.391 16.6614 10.0898C16.5502 9.74726 16.2531 9.45025 15.6591 8.85622L15.1458 8.34295C14.5518 7.74892 14.2548 7.45191 13.9123 7.34063C13.611 7.24274 13.2865 7.24274 12.9853 7.34063C12.6428 7.45191 12.3458 7.74892 11.7517 8.34295L6.23487 13.8598ZM6.23487 13.8598H14.0496" stroke="currentColor" stroke-width="1.5" stroke-linecap="round" stroke-linejoin="round"/>
</svg>

<svg xmlns="http://www.w3.org/2000/svg" width="24" height="24" fill="none" viewBox="0 0 24 24"><path stroke="currentColor" stroke-linecap="round" stroke-linejoin="round" stroke-width="1.5" d="M19.047 7.819 20.92 9.69m-1.872-1.87-2.864-2.864m2.864 2.864 1.496-1.496a1 1 0 0 0 0-1.414l-1.45-1.45a1 1 0 0 0-1.414 0l-1.496 1.496m-1.872-1.872 1.872 1.872M6.235 13.86l-2.202 2.202c-.205.205-.308.307-.387.425q-.107.157-.171.335c-.048.134-.07.277-.116.563l-.096.608c-.173 1.1-.26 1.65-.087 2.05.151.35.43.629.78.78.399.174.949.087 2.05-.085l.61-.096c.286-.044.43-.067.563-.115q.18-.065.337-.17c.117-.08.22-.183.425-.389l7.718-7.718c.594-.594.891-.89 1.002-1.233a1.5 1.5 0 0 0 0-.927c-.11-.343-.408-.64-1.002-1.234l-.513-.513c-.594-.594-.891-.891-1.234-1.002a1.5 1.5 0 0 0-.927 0c-.342.11-.64.408-1.233 1.002zm0 0h7.815"/></svg>
